_inc/systems/logos/zx81.svg

<?xml version="1.0" encoding="utf-8"?>
<svg viewBox="0 0 264 82" xmlns="http://www.w3.org/2000/svg">
  <path d="M 47.438 3.605 L 47.438 7.211 L 51.82 7.211 L 56.203 7.211 L 56.203 3.605 L 56.203 0 L 51.82 0 L 47.438 0 L 47.438 3.605 Z" style="fill: rgb(255, 255, 255);"/>
  <path d="M 209.344 3.605 L 209.344 7.211 L 213.727 7.211 L 218.109 7.211 L 218.109 3.605 L 218.109 0 L 213.727 0 L 209.344 0 L 209.344 3.605 Z" style="fill: rgb(255, 255, 255);"/>
  <path d="M 152.109 18.8 L 152.109 37.085 L 156.492 37.085 L 160.875 37.085 L 160.875 18.8 L 160.875 0.515 L 156.492 0.515 L 152.109 0.515 L 152.109 18.8 Z" style="fill: rgb(255, 255, 255);"/>
  <path d="M 0 17.512 L 0 26.269 L 18.202 26.372 C 35.939 26.526 36.352 26.526 36.352 27.556 C 36.352 28.586 35.939 28.586 18.202 28.741 L 0 28.844 L 0 32.707 L 0 36.57 L 22.688 36.57 L 45.375 36.57 L 45.375 27.814 L 45.375 19.058 L 27.328 19.058 L 9.281 19.058 L 9.281 17.77 L 9.281 16.482 L 27.328 16.482 L 45.375 16.482 L 45.375 12.619 L 45.375 8.757 L 22.688 8.757 L 0 8.757 L 0 17.512 Z" style="fill: rgb(255, 255, 255);"/>
  <path d="M 47.438 22.663 L 47.438 36.57 L 51.82 36.57 L 56.203 36.57 L 56.203 22.663 L 56.203 8.757 L 51.82 8.757 L 47.438 8.757 L 47.438 22.663 Z" style="fill: rgb(255, 255, 255);"/>
  <path d="M 58.266 22.663 L 58.266 36.57 L 62.906 36.57 L 67.547 36.57 L 67.547 26.526 L 67.547 16.482 L 80.953 16.482 L 94.359 16.482 L 94.359 26.526 L 94.359 36.57 L 99 36.57 L 103.641 36.57 L 103.641 22.663 L 103.641 8.757 L 80.953 8.757 L 58.266 8.757 L 58.266 22.663 Z" style="fill: rgb(255, 255, 255);"/>
  <path d="M 105.188 22.663 L 105.188 36.57 L 127.617 36.57 L 150.047 36.57 L 150.047 32.707 L 150.047 28.844 L 132 28.844 L 113.953 28.844 L 113.953 22.663 L 113.953 16.482 L 132 16.482 L 150.047 16.482 L 150.047 12.619 L 150.047 8.757 L 127.617 8.757 L 105.188 8.757 L 105.188 22.663 Z" style="fill: rgb(255, 255, 255);"/>
  <path d="M 162.938 12.619 L 162.938 16.482 L 180.623 16.585 C 197.845 16.74 198.258 16.74 198.258 17.77 C 198.258 18.8 197.845 18.8 180.623 18.955 L 162.938 19.058 L 162.938 27.814 L 162.938 36.57 L 185.367 36.57 L 207.797 36.57 L 207.797 22.663 L 207.797 8.757 L 185.367 8.757 L 162.938 8.757 L 162.938 12.619 Z M 198.258 27.556 C 198.258 28.535 197.845 28.586 185.006 28.741 C 172.373 28.844 171.703 28.792 171.703 27.917 C 171.703 27.402 171.858 26.783 172.064 26.577 C 172.27 26.424 178.2 26.32 185.316 26.372 C 197.845 26.526 198.258 26.577 198.258 27.556 Z" style="fill: rgb(255, 255, 255);"/>
  <path d="M 209.344 22.663 L 209.344 36.57 L 213.727 36.57 L 218.109 36.57 L 218.109 22.663 L 218.109 8.757 L 213.727 8.757 L 209.344 8.757 L 209.344 22.663 Z" style="fill: rgb(255, 255, 255);"/>
  <path d="M 219.656 22.663 L 219.656 36.57 L 224.297 36.57 L 228.938 36.57 L 229.041 26.629 L 229.195 16.74 L 246.623 16.585 L 264 16.482 L 264 12.619 L 264 8.757 L 241.828 8.757 L 219.656 8.757 L 219.656 22.663 Z" style="fill: rgb(255, 255, 255);"/>
  <path d="M 79.406 46.356 L 79.406 49.447 L 88.172 49.447 C 93.019 49.447 96.938 49.602 96.938 49.807 C 96.938 50.065 92.503 55.627 87.141 62.22 L 77.344 74.222 L 77.344 77.827 L 77.344 81.382 L 92.813 81.382 L 108.281 81.382 L 108.281 78.291 L 108.281 75.2 L 97.453 75.097 L 86.573 74.942 L 97.195 61.911 L 107.817 48.931 L 107.663 46.202 L 107.508 43.523 L 93.483 43.369 L 79.406 43.266 L 79.406 46.356 Z" style="fill: rgb(255, 255, 255);"/>
  <path d="M 111.323 44.244 C 111.633 44.811 114.211 48.829 117.047 53.155 C 119.934 57.482 122.152 61.396 122.048 61.809 C 121.945 62.22 119.161 66.701 115.861 71.75 C 112.509 76.797 109.828 81.021 109.828 81.124 C 109.828 81.279 111.839 81.382 114.366 81.382 L 118.852 81.382 L 123.08 74.84 L 127.256 68.299 L 131.484 74.84 L 135.713 81.382 L 140.353 81.382 C 143.911 81.382 144.839 81.227 144.581 80.763 C 144.375 80.403 141.436 75.973 138.084 70.977 L 132 61.861 L 137.93 52.691 L 143.808 43.523 L 139.889 43.369 C 137.723 43.266 135.661 43.317 135.352 43.472 C 134.991 43.575 133.134 46.253 131.227 49.395 C 129.319 52.538 127.617 55.113 127.411 55.113 C 127.256 55.113 125.452 52.486 123.492 49.292 L 119.883 43.523 L 115.345 43.369 C 110.963 43.215 110.808 43.266 111.323 44.244 Z" style="fill: rgb(255, 255, 255);"/>
  <path d="M 153.605 44.708 C 147.675 47.799 146.695 55.473 151.748 59.491 L 153.553 60.933 L 151.955 62.014 C 147.056 65.311 146.077 72.728 149.892 77.724 C 151.852 80.3 156.08 82.051 160.308 81.999 C 164.639 81.999 167.63 80.815 169.847 78.239 C 173.817 73.604 173.714 66.856 169.641 63.148 C 168.506 62.117 167.32 61.293 166.959 61.293 C 166.65 61.293 167.32 60.418 168.455 59.336 C 170.827 57.173 171.909 54.237 171.394 51.456 C 170.363 46.048 166.495 43.266 159.895 43.266 C 157.008 43.266 155.822 43.523 153.605 44.708 Z M 163.195 50.219 C 164.072 51.043 164.484 52.022 164.484 53.259 C 164.484 55.731 164.072 56.606 162.37 57.43 C 160.308 58.512 158.555 58.357 156.905 56.967 C 155.77 55.988 155.461 55.319 155.461 53.567 C 155.461 51.816 155.77 51.147 156.905 50.168 C 158.864 48.52 161.545 48.52 163.195 50.219 Z M 162.422 64.642 C 165.98 66.496 166.547 72.059 163.505 74.789 C 158.555 79.218 152.161 72.419 155.719 66.547 C 157.317 63.972 159.741 63.251 162.422 64.642 Z" style="fill: rgb(255, 255, 255);"/>
  <path d="M 178.922 62.324 L 178.922 81.382 L 182.789 81.382 L 186.656 81.382 L 186.656 62.324 L 186.656 43.266 L 182.789 43.266 L 178.922 43.266 L 178.922 62.324 Z" style="fill: rgb(255, 255, 255);"/>
</svg>

<svg xmlns="http://www.w3.org/2000/svg" viewBox="0 0 264 82"><path d="M47.44 3.6v3.61h8.76V0h-8.76zm161.9 0v3.61h8.77V0h-8.77zM152.1 18.8v18.29h8.78V.52h-8.77zM0 17.51v8.76l18.2.1c17.74.16 18.15.16 18.15 1.19s-.41 1.03-18.15 1.18l-18.2.1v7.73h45.38V19.06H9.27v-2.58h36.1V8.76H0zm47.44 5.15v13.91h8.76V8.76h-8.76zm10.83 0v13.91h9.28V16.48h26.8v20.09h9.29V8.76H58.27zm46.92 0v13.91h44.86v-7.73h-36.1V16.48h36.1V8.76h-44.86zm57.75-10.04v3.86l17.68.1c17.22.16 17.64.16 17.64 1.19s-.41 1.03-17.64 1.18l-17.68.1v17.52h44.86V8.76h-44.86zm35.32 14.94c0 .98-.41 1.03-13.25 1.18-12.64.1-13.3.05-13.3-.82 0-.52.15-1.14.35-1.34.21-.16 6.14-.26 13.26-.2 12.53.15 12.94.2 12.94 1.18m11.08-4.9v13.91h8.77V8.76h-8.77zm10.32 0v13.91h9.28l.1-9.94.16-9.89 17.42-.15 17.38-.1V8.75h-44.34zM79.4 46.36v3.09h8.77c4.85 0 8.77.15 8.77.36 0 .25-4.44 5.82-9.8 12.41l-9.8 12v7.16h30.94V75.2l-10.83-.1-10.88-.16L97.2 61.91l10.62-12.98-.16-2.73-.15-2.68-14.03-.15-14.07-.1zm31.92-2.12c.31.57 2.9 4.59 5.73 8.91 2.88 4.33 5.1 8.25 5 8.66s-2.89 4.9-6.19 9.94a243 243 0 0 0-6.03 9.37c0 .16 2 .26 4.54.26h4.48l4.23-6.54 4.18-6.54 4.22 6.54 4.23 6.54h4.64c3.56 0 4.49-.15 4.23-.62-.2-.36-3.14-4.79-6.5-9.78L132 61.86l5.93-9.17 5.88-9.17-3.92-.15c-2.17-.1-4.23-.05-4.54.1-.36.1-2.22 2.78-4.12 5.93-1.91 3.14-3.61 5.71-3.82 5.71-.15 0-1.96-2.62-3.92-5.82l-3.6-5.77-4.55-.15c-4.38-.15-4.53-.1-4.02.87m42.28.46c-5.92 3.1-6.9 10.77-1.85 14.8l1.8 1.43-1.6 1.08c-4.9 3.3-5.87 10.72-2.06 15.71 1.96 2.58 6.19 4.33 10.42 4.28 4.33 0 7.32-1.19 9.54-3.76 3.97-4.64 3.86-11.38-.2-15.1-1.14-1.02-2.33-1.85-2.7-1.85-.3 0 .37-.87 1.5-1.95 2.38-2.17 3.46-5.1 2.94-7.88-1.03-5.41-4.9-8.2-11.5-8.2-2.88 0-4.07.26-6.28 1.45m9.6 5.52c.87.82 1.28 1.8 1.28 3.04 0 2.47-.4 3.35-2.11 4.17-2.06 1.08-3.81.93-5.47-.46-1.13-.98-1.44-1.65-1.44-3.4s.31-2.42 1.44-3.4c1.96-1.65 4.64-1.65 6.3.05m-.78 14.42c3.56 1.86 4.13 7.42 1.09 10.15-4.95 4.43-11.35-2.37-7.8-8.24 1.6-2.58 4.03-3.3 6.71-1.9m16.49-2.34v19.06h7.74V43.27h-7.74z" style="fill:#fff"/></svg>
